!!!COM: Bach, Johann Sebastian
!!!OPR: Joh. Seb. Bachs vierstimmige Choralgesänge
!!!XEN: Four-part Chorales
!!!OTL: 110. Jesus Christus, unser Heiland
!!!SCT: BWV 363
!!!SCA: Thematisch-systematisches Verzeichnis der musikalischen Werke Johann Sebastian Bach: Bach-Werke-Verzeichnis (Schmieder)
!!!YOR: Bach Gesellschaft Edition xxxix
!!!ENC: Steven Rasmussen
!!!CDT: 1685/3//-1750/7/28/
!!!OCY: Deutschland
!!!YEC: Copyright (c) 1994, 2000 Center for Computer Assisted Research in the Humanities
!!!YEM: Rights to all derivative editions reserved
!!!YEN: United States of America
**kern	**silbe	**kern	**kern	**silbe	**kern	**silbe
*I:[SOPRANO]	*I:[SOPRANO]	*I:[ALTO]	*I:[TENORE]	*I:[TENORE]	*I:[BASSO]	*I:[BASSO]
*clefG2	*	*clefG2	*clefGv2	*	*clefF4	*
*k[f#]	*	*k[f#]	*k[f#]	*	*k[f#]	*
*e:	*	*e:	*e:	*	*e:	*
*M4/4	*	*M4/4	*M4/4	*	*M4/4	*
=1-	=1-	=1-	=1-	=1-	=1-	=1-
4e/	Je-	4B/	4G/	.	4.E\	.
4b\	-sus	4B/	4F#/	.	.	.
.	.	.	.	.	8D\	.
4b\	Chri-	8e/L	4G/	.	2C/	.
.	.	8d#/J	.	.	.	.
4a/	.	4e/	8F#/L	.	.	.
.	.	.	8E/J	.	.	.
=2	=2	=2	=2	=2	=2	=2
4b\	.	4d#/	4F#/	.	8BB\L	.
.	.	.	.	.	8A\J	.
8e/L	-stus,	8e/L	8B/L	.	8G\L	.
8f#/J	.	8d#/J	8A/J	.	8F#\J	.
4g/	un-	4e/	4B\	.	8E\L	.
.	.	.	.	.	8D\J	.
4g/	-ser	4e/	8e\L	.	8C/L	.
.	.	.	8d#\J?	.	8BB/J	.
=3	=3	=3	=3	=3	=3	=3
4g/	Hei-	4.e/	4c#\	.	4AA#/	.
4f#/	.	.	8F#/L	.	4BB/	.
.	.	8d#/	16B/L	.	.	.
.	.	.	16A/JJ	.	.	.
2e;/	-land,	2B;/	2G;/	.	2EE;/	.
=4	=4	=4	=4	=4	=4	=4
4g/	der	4e/	4B\	.	8E\L	.
.	.	.	.	.	8D\J	.
4g/	von	4e/	4c\	.	4C/	.
4g/	uns	4d/	4G/	.	4BB/	.
4e/	den	4c/	4G/	.	4C/	.
=5	=5	=5	=5	=5	=5	=5
4g/	Got-	4d/	8G/L	.	8C/L	.
.	.	.	16A/L	.	8BB/J	.
.	.	.	16B/JJ	.	.	.
4a/	-tes-	8e/L	4c\	.	4AA/	.
.	.	8f#/J	.	.	.	.
4b\	-zorn	4.g/	8d\L	.	4GG/	.
.	.	.	16e\L	.	.	.
.	.	.	16d\JJ	.	.	.
4a/	.	.	16c\LL	.	4AA/	.
.	.	.	16B\J	.	.	.
.	.	[8f#/	8c\J	.	.	.
=6	=6	=6	=6	=6	=6	=6
4g/	.	8f#/]	[4B\	.	2BB/	.
.	.	4e/	.	.	.	.
4f#/	.	.	8.B/L]	.	.	.
.	.	8d#/	.	.	.	.
.	.	.	16A/Jk	.	.	.
2e;/	wand,	2B;/	2G;/	.	2E;\	.
=7	=7	=7	=7	=7	=7	=7
4g/	durch	4e/	8B\L	.	4E\	.
.	.	.	8c\J	.	.	.
4g/	das	8g/L	4d\	.	4BB/	.
.	.	8f#/J	.	.	.	.
4g/	bitt-	4e/	4c\	.	8C/L	.
.	.	.	.	.	8D/J	.
4e/	-re	4c/	4G/	.	8E\L	.
.	.	.	.	.	8D\J	.
=8	=8	=8	=8	=8	=8	=8
4g/	Lei-	8e/L	4G/	.	8C/L	.
.	.	8d/J	.	.	8BB/J	.
4a/	.	8e/L	4c\	.	4AA/	.
.	.	8f#/J	.	.	.	.
4b\	.	4.g/	4d\	.	4GG/	.
4a/	-den	.	8.d\L	.	4D\	.
.	.	8f#/	.	.	.	.
.	.	.	16c\Jk	.	.	.
=9	=9	=9	=9	=9	=9	=9
2g;/	sein	2d;/	2B;\	.	2GG;/	.
4r	.	4r	4r	.	4r	.
4dd\	half	8g/L	4d\	.	4BB/	.
.	.	8fn/J	.	.	.	.
=10	=10	=10	=10	=10	=10	=10
4ee\	er	4e/	8c\L	.	4C/	.
.	.	.	8B\J	.	.	.
8dd\L	uns	4f#/	4A/	.	4D\	.
8cc\J	.	.	.	.	.	.
8b/L	aus	8g/L	8G/L	.	4.E\	.
8a/J	.	8d#/J	8c/J	.	.	.
8g/L	der	8e/L	8B/L	.	.	.
8a/J	.	8dn/J	8A/J	.	8F#\	.
=11	=11	=11	=11	=11	=11	=11
4b\	H\o3l-	8d/	8G\L	H\o3l-	8G\L	H\o3l-
.	.	4g/	8d\	.	8BB\	.
4a/	.	.	8e\	.	8C#\	.
.	.	4f#/	8B\J	.	8D#\J	.
4g/	.	.	4B\	-len-	8E/L	.
.	.	4e/	.	.	8GG/J	.
4f#/	-len-	.	8c\L	.	8AA/L	-len-
.	.	8d#/	16B\L	.	8BB/J	.
.	.	.	16A\JJ	.	.	.
=12	=12	=12	=12	=12	=12	=12
2.e;/	-pein.	2.B;/	2.G#;/	-pein.	2.EE;/	-pein.
==|!	==|!	==|!	==|!	==|!	==|!	==|!
!!!RNB1: * D4n? -- BG
*-	*-	*-	*-	*-	*-	*-
!!!RWG: Key is interpreted using the Humdrum key tool.
!!!END: 1994/07/11/
!!!KEY: 1770843788
!!!EMD: Converted from MuseData to Humdrum Dec 19, 2000, by Andreas Kornstaedt using muse2kern.
